src/icons/dapp/dapp-share.svg

<svg width="24" height="24" viewBox="0 0 24 24" fill="currentColor" xmlns="http://www.w3.org/2000/svg">
<path fill-rule="evenodd" clip-rule="evenodd" d="M21.4605 12.9624L14.0763 19.8897C13.6049 20.3344 13.2506 20.497 12.8066 20.497C12.1909 20.497 11.7498 20.056 11.7498 19.4403V15.9001H11.3147C9.59491 15.9001 8.18814 16.1518 7.02038 16.7622C5.84918 17.3745 4.93663 18.3382 4.18971 19.7274C4.02173 20.0418 3.84118 20.2195 3.66036 20.3214C3.47888 20.4236 3.27872 20.4597 3.05318 20.4597C2.79851 20.4597 2.5696 20.343 2.39682 20.0916C2.2199 19.8342 2.09901 19.4288 2.09901 18.8622C2.09901 15.5029 2.83988 12.8311 4.34896 11.002C5.85246 9.17972 8.14365 8.16392 11.3147 8.16392H11.7498V4.64235C11.7498 4.01887 12.1985 3.53899 12.8252 3.53899C13.2414 3.53899 13.5475 3.70062 14.0769 4.19347L21.4611 11.0743C21.7848 11.3817 21.901 11.7204 21.901 12.018C21.901 12.3071 21.7839 12.6554 21.4605 12.9624ZM3.5567 18.3649C3.72152 18.3649 3.79969 18.2312 3.83068 18.1693L3.83211 18.1663C4.90178 15.9379 7.52509 14.5978 11.7622 14.5978H12.9558C13.0208 14.5978 13.0428 14.6093 13.0471 14.6121C13.0499 14.6164 13.0614 14.6384 13.0614 14.7034V18.1442C13.0614 18.2312 13.0881 18.3224 13.1558 18.3932C13.2242 18.4649 13.3152 18.4954 13.4033 18.4954C13.5211 18.4954 13.6244 18.4317 13.6931 18.3639L20.0693 12.3421L20.0733 12.338C20.1181 12.2932 20.1581 12.2453 20.1858 12.19C20.2159 12.1297 20.2258 12.0722 20.2258 12.018C20.2258 11.881 20.1494 11.7842 20.0825 11.7078L20.0765 11.7009L13.7028 5.61654C13.6301 5.54457 13.5264 5.48463 13.4033 5.48463C13.3155 5.48463 13.2265 5.5148 13.159 5.58228C13.0916 5.64975 13.0614 5.73868 13.0614 5.82656V9.3512C13.0614 9.41624 13.0499 9.4382 13.0471 9.44254C13.0428 9.44538 13.0208 9.45685 12.9558 9.45685H11.7622C8.71145 9.45685 6.61976 10.4659 5.27616 12.0664C3.93841 13.6599 3.36484 15.8128 3.28937 18.0628V18.0696C3.28937 18.1273 3.30123 18.2006 3.34992 18.2639C3.40411 18.3343 3.48269 18.3649 3.5567 18.3649ZM21.4605 12.9624L14.0763 19.8897C13.6049 20.3344 13.2506 20.497 12.8066 20.497C12.1909 20.497 11.7498 20.056 11.7498 19.4403V15.9001H11.3147C9.59491 15.9001 8.18814 16.1518 7.02038 16.7622C5.84918 17.3745 4.93663 18.3382 4.18971 19.7274C4.02173 20.0418 3.84118 20.2195 3.66036 20.3214C3.47888 20.4236 3.27872 20.4597 3.05318 20.4597C2.79851 20.4597 2.5696 20.343 2.39682 20.0916C2.2199 19.8342 2.09901 19.4288 2.09901 18.8622C2.09901 15.5029 2.83988 12.8311 4.34896 11.002C5.85246 9.17972 8.14365 8.16392 11.3147 8.16392H11.7498V4.64235C11.7498 4.01887 12.1985 3.53899 12.8252 3.53899C13.2414 3.53899 13.5475 3.70062 14.0769 4.19347L21.4611 11.0743C21.7848 11.3817 21.901 11.7204 21.901 12.018C21.901 12.3071 21.7839 12.6554 21.4605 12.9624ZM11.6508 8.06493V4.64238C11.6508 3.9678 12.1403 3.44 12.8252 3.44C13.2796 3.44 13.6093 3.62294 14.1443 4.12103L21.5286 11.0018C21.8716 11.3276 22 11.6927 22 12.018C22 12.3345 21.8715 12.7087 21.5286 13.0342L14.1443 19.9617C13.6617 20.417 13.2843 20.596 12.8066 20.596C12.1362 20.596 11.6508 20.1107 11.6508 19.4403V15.9991H11.3147C9.60374 15.9991 8.21465 16.2497 7.06624 16.85C5.91612 17.4512 5.01656 18.3987 4.27696 19.7742C4.10221 20.1012 3.90964 20.2946 3.70894 20.4077C3.50788 20.5209 3.28929 20.5587 3.05318 20.5587C2.76344 20.5587 2.50504 20.4239 2.31523 20.1477C2.12334 19.8685 2 19.4413 2 18.8622C2 15.4904 2.74336 12.7925 4.27259 10.939C5.79896 9.08902 8.12113 8.06493 11.3147 8.06493H11.6508ZM13.7028 5.61654C13.6301 5.54457 13.5264 5.48463 13.4033 5.48463C13.3155 5.48463 13.2265 5.5148 13.159 5.58228C13.0916 5.64975 13.0614 5.73868 13.0614 5.82656V9.3512C13.0614 9.41624 13.0499 9.4382 13.0471 9.44254C13.0428 9.44538 13.0208 9.45685 12.9558 9.45685H11.7622C8.71145 9.45685 6.61976 10.4659 5.27616 12.0664C3.93841 13.6599 3.36484 15.8128 3.28937 18.0628V18.0696C3.28937 18.1273 3.30123 18.2006 3.34992 18.2639C3.40411 18.3343 3.48269 18.3649 3.5567 18.3649C3.72152 18.3649 3.79969 18.2312 3.83068 18.1693L3.83211 18.1663C4.90178 15.9379 7.52509 14.5978 11.7622 14.5978H12.9558C13.0208 14.5978 13.0428 14.6093 13.0471 14.6121C13.0499 14.6164 13.0614 14.6384 13.0614 14.7034V18.1442C13.0614 18.2312 13.0881 18.3224 13.1558 18.3932C13.2242 18.4649 13.3152 18.4954 13.4033 18.4954C13.5211 18.4954 13.6244 18.4317 13.6931 18.3639L20.0693 12.3421L20.0733 12.338C20.1181 12.2932 20.1581 12.2453 20.1858 12.19C20.2159 12.1297 20.2258 12.0722 20.2258 12.018C20.2258 11.881 20.1494 11.7842 20.0825 11.7078L20.0765 11.7009L13.7028 5.61654ZM20.005 11.7695L13.6332 5.68694C13.5732 5.62756 13.4931 5.58366 13.4033 5.58366C13.3378 5.58366 13.2754 5.60599 13.2291 5.65231C13.1827 5.69863 13.1604 5.76107 13.1604 5.82658V9.35123C13.1604 9.42534 13.1478 9.46961 13.1298 9.49692L13.1186 9.51406L13.1014 9.52531C13.0741 9.54325 13.0299 9.55588 12.9558 9.55588H11.7622C8.73511 9.55588 6.67345 10.556 5.35199 12.1301C4.03383 13.7003 3.46365 15.8279 3.38838 18.0645V18.0696C3.38838 18.1152 3.39792 18.1639 3.4284 18.2035C3.46161 18.2467 3.50958 18.2659 3.5567 18.2659C3.65818 18.2659 3.71183 18.1855 3.74195 18.1254L3.74285 18.1235C4.83664 15.8448 7.50863 14.4988 11.7622 14.4988H12.9558C13.0299 14.4988 13.0741 14.5114 13.1014 14.5294L13.1186 14.5406L13.1298 14.5578C13.1478 14.5851 13.1604 14.6293 13.1604 14.7035V18.1442C13.1604 18.2116 13.181 18.2763 13.2274 18.3249C13.2742 18.3739 13.3376 18.3964 13.4033 18.3964C13.4858 18.3964 13.5655 18.3508 13.6235 18.2935L13.6251 18.292L20.0002 12.2711L20.0033 12.268C20.0444 12.2269 20.0763 12.1876 20.0972 12.1457C20.1194 12.1013 20.1267 12.0594 20.1267 12.018C20.1267 11.9206 20.0739 11.8483 20.008 11.773L20.005 11.7695Z" fill="currentColor"/>
</svg>

<svg width="24" height="24" fill="currentColor" xmlns="http://www.w3.org/2000/svg"><path fill-rule="evenodd" clip-rule="evenodd" d="m21.46 12.962-7.384 6.928c-.471.444-.825.607-1.27.607-.615 0-1.056-.441-1.056-1.057V15.9h-.435c-1.72 0-3.127.252-4.295.862-1.17.613-2.083 1.576-2.83 2.965-.168.315-.349.492-.53.594a1.201 1.201 0 0 1-.607.139c-.254 0-.483-.117-.656-.368-.177-.258-.298-.663-.298-1.23 0-3.36.74-6.03 2.25-7.86 1.503-1.822 3.795-2.838 6.966-2.838h.435V4.642c0-.623.448-1.103 1.075-1.103.416 0 .723.162 1.252.654l7.384 6.881c.324.308.44.646.44.944 0 .29-.117.637-.44.944zM3.558 18.365c.165 0 .243-.134.274-.196l.001-.003c1.07-2.228 3.693-3.568 7.93-3.568h1.194c.065 0 .087.011.091.014.003.004.014.026.014.091v3.441c0 .087.027.178.095.25.068.07.16.101.247.101a.426.426 0 0 0 .29-.131l6.376-6.022.004-.004a.58.58 0 0 0 .113-.148c.03-.06.04-.118.04-.172 0-.137-.077-.234-.143-.31l-.006-.007-6.374-6.084a.43.43 0 0 0-.3-.132.342.342 0 0 0-.244.097.342.342 0 0 0-.098.245V9.35c0 .065-.011.087-.014.092-.004.002-.026.014-.091.014h-1.194c-3.05 0-5.142 1.009-6.486 2.61-1.338 1.593-1.911 3.746-1.987 5.996v.007c0 .057.012.13.06.194.055.07.134.1.208.1zm17.904-5.403-7.385 6.928c-.471.444-.825.607-1.27.607-.615 0-1.056-.441-1.056-1.057V15.9h-.435c-1.72 0-3.127.252-4.295.862-1.17.613-2.083 1.576-2.83 2.965-.168.315-.349.492-.53.594a1.201 1.201 0 0 1-.607.139c-.254 0-.483-.117-.656-.368-.177-.258-.298-.663-.298-1.23 0-3.36.74-6.03 2.25-7.86 1.503-1.822 3.795-2.838 6.966-2.838h.435V4.642c0-.623.448-1.103 1.075-1.103.416 0 .723.162 1.252.654l7.384 6.881c.324.308.44.646.44.944 0 .29-.117.637-.44.944zm-9.81-4.897V4.642c0-.674.49-1.202 1.174-1.202.455 0 .784.183 1.32.681l7.384 6.88c.343.327.471.692.471 1.017 0 .316-.128.69-.471 1.016l-7.385 6.928c-.482.455-.86.634-1.337.634-.67 0-1.156-.485-1.156-1.156V16h-.336c-1.711 0-3.1.25-4.249.85-1.15.601-2.05 1.549-2.789 2.924-.175.327-.367.52-.568.634a1.3 1.3 0 0 1-.656.15c-.29 0-.548-.134-.738-.41-.192-.28-.315-.707-.315-1.286 0-3.372.743-6.07 2.273-7.923 1.526-1.85 3.848-2.874 7.042-2.874h.336zm2.052-2.448a.43.43 0 0 0-.3-.132.342.342 0 0 0-.244.097.342.342 0 0 0-.098.245V9.35c0 .065-.011.087-.014.092-.004.002-.026.014-.091.014h-1.194c-3.05 0-5.142 1.009-6.486 2.61-1.338 1.593-1.911 3.746-1.987 5.996v.007c0 .057.012.13.06.194.055.07.134.1.208.1.165 0 .243-.133.274-.195l.001-.003c1.07-2.228 3.693-3.568 7.93-3.568h1.194c.065 0 .087.011.091.014.003.004.014.026.014.091v3.441c0 .087.027.178.095.25.068.07.16.101.247.101a.426.426 0 0 0 .29-.131l6.376-6.022.004-.004a.58.58 0 0 0 .113-.148c.03-.06.04-.118.04-.172 0-.137-.077-.234-.143-.31l-.006-.007-6.374-6.084zm6.302 6.153-6.372-6.083a.331.331 0 0 0-.23-.103.242.242 0 0 0-.174.068.242.242 0 0 0-.069.175V9.35c0 .074-.012.119-.03.146l-.011.017-.018.011c-.027.018-.071.03-.145.03h-1.194c-3.027 0-5.089 1.001-6.41 2.575-1.318 1.57-1.888 3.698-1.964 5.934v.006c0 .045.01.094.04.133a.16.16 0 0 0 .129.063c.101 0 .155-.08.185-.14v-.003c1.095-2.278 3.767-3.624 8.02-3.624h1.194c.074 0 .118.012.145.03l.018.012.01.017c.019.027.031.071.031.146v3.44c0 .068.021.132.067.18.047.05.11.072.176.072a.328.328 0 0 0 .22-.102l.002-.002L20 12.272l.003-.004a.482.482 0 0 0 .094-.122.277.277 0 0 0 .03-.128c0-.097-.053-.17-.119-.245l-.003-.003z"/></svg>
